X:1
T:Title
L:1/8
Q:1/4=100
M:2/4
K:C
V:1 treble nm="Grand Piano"
V:1
 z E EF | FE EA- | AE EF | FE ED- | DD/D/ DE | ED ^G/A/B- | BB/B/ BB/B/ | dd Bc/B/ | AE EE | %9
 FE EA- | AE EF | FE ED- | DD/D/ DE | ED ^G/A/B- | BB/B/ BB/B/ | dd Bc/B/ | A4 | z A cA/A/ | B4- | %19
 B^G BG | A4- | AA cA/A/ | B4- | B^G BG | A4 | z A cA/A/ | B4- | B^G BG | A4- | AA cA/A/ | B4- | %31
 B^G BG | A2 E2 |] %33

